source/img/dining.svg

<svg width="80" height="80" viewBox="0 0 80 80" fill="none" xmlns="http://www.w3.org/2000/svg">
<mask id="path-1-inside-1" fill="white">
<path d="M46.1875 55C45.7382 55 45.375 54.7206 45.375 54.375V25.625C45.375 25.2794 45.7382 25 46.1875 25C46.6368 25 47 25.2794 47 25.625V54.375C47 54.7206 46.6368 55 46.1875 55Z"/>
</mask>
<path d="M46.1875 53C46.3646 53 46.5996 53.0529 46.8322 53.2319C47.0676 53.413 47.375 53.8004 47.375 54.375H43.375C43.375 56.2813 45.1531 57 46.1875 57V53ZM47.375 54.375V25.625H43.375V54.375H47.375ZM47.375 25.625C47.375 26.1996 47.0676 26.587 46.8322 26.7681C46.5996 26.9471 46.3646 27 46.1875 27V23C45.1531 23 43.375 23.7187 43.375 25.625H47.375ZM46.1875 27C46.0104 27 45.7754 26.9471 45.5428 26.7681C45.3074 26.587 45 26.1996 45 25.625H49C49 23.7187 47.2219 23 46.1875 23V27ZM45 25.625V54.375H49V25.625H45ZM45 54.375C45 53.8004 45.3074 53.413 45.5428 53.2319C45.7754 53.0529 46.0104 53 46.1875 53V57C47.2219 57 49 56.2813 49 54.375H45Z" fill="white" mask="url(#path-1-inside-1)"/>
<path d="M47.2219 27.1519C47.5659 27.7548 47.8948 28.5492 48.1983 29.5053C48.0668 29.2593 47.9342 29.0382 47.802 28.8412C47.5817 28.513 47.3494 28.233 47.1074 28.0154C46.9809 27.9016 46.8314 27.7866 46.661 27.6933C46.6158 27.5255 46.5697 27.2974 46.5271 27.0328C46.4776 26.7255 46.4383 26.4042 46.4111 26.1364C46.6166 26.2829 46.8939 26.577 47.2219 27.1519Z" stroke="white" stroke-width="2"/>
<mask id="path-4-inside-2" fill="white">
<path d="M34 36.25C31.2436 36.25 29 34.2869 29 31.875V25.625C29 25.2794 29.3193 25 29.7143 25C30.1093 25 30.5967 25.2794 30.5967 25.625V31.875C30.5967 33.5981 32.0307 34.5 34 34.5C35.9693 34.5 37.5 33.5 37.5 32V25.625C37.5 25.2794 37.8907 25 38.2857 25C38.6807 25 39 25.2794 39 25.625V31.875C39 34.2869 36.7564 36.25 34 36.25Z"/>
</mask>
<path d="M34 34.25C32.0889 34.25 31 32.9398 31 31.875H27C27 35.634 30.3982 38.25 34 38.25V34.25ZM31 31.875V25.625H27V31.875H31ZM31 25.625C31 26.6265 30.1646 27 29.7143 27V23C28.4739 23 27 23.9323 27 25.625H31ZM29.7143 27C29.4907 27 29.3321 26.938 29.2017 26.8519C29.1261 26.8021 28.5967 26.4289 28.5967 25.625H32.5967C32.5967 24.4755 31.8235 23.7898 31.4055 23.5138C30.9327 23.2016 30.3329 23 29.7143 23V27ZM28.5967 25.625V31.875H32.5967V25.625H28.5967ZM28.5967 31.875C28.5967 33.3683 29.2547 34.6282 30.3816 35.4497C31.4337 36.2169 32.744 36.5 34 36.5V32.5C33.2867 32.5 32.8953 32.3322 32.7381 32.2176C32.6705 32.1683 32.6475 32.1316 32.6365 32.1099C32.6255 32.0882 32.5967 32.0222 32.5967 31.875H28.5967ZM34 36.5C35.2988 36.5 36.5968 36.1736 37.6307 35.4543C38.6995 34.7107 39.5 33.5151 39.5 32H35.5C35.5 32.0225 35.4974 32.0245 35.494 32.0304C35.4864 32.0436 35.4513 32.0977 35.3463 32.1707C35.1225 32.3264 34.6705 32.5 34 32.5V36.5ZM39.5 32V25.625H35.5V32H39.5ZM39.5 25.625C39.5 26.2461 39.1537 26.6224 38.9637 26.7685C38.7668 26.9199 38.5361 27 38.2857 27V23C37.6403 23 37.0168 23.2198 36.5258 23.5973C36.0417 23.9694 35.5 24.6583 35.5 25.625H39.5ZM38.2857 27C37.8354 27 37 26.6265 37 25.625H41C41 23.9323 39.5261 23 38.2857 23V27ZM37 25.625V31.875H41V25.625H37ZM37 31.875C37 32.9398 35.9111 34.25 34 34.25V38.25C37.6018 38.25 41 35.634 41 31.875H37Z" fill="white" mask="url(#path-4-inside-2)"/>
<mask id="path-6-inside-3" fill="white">
<path d="M34 55C33.447 55 33 54.7206 33 54.375V25.625C33 25.2794 33.447 25 34 25C34.553 25 35 25.2794 35 25.625V54.375C35 54.7206 34.553 55 34 55Z"/>
</mask>
<path d="M34 49C34.6651 49 35.5558 49.1561 36.4726 49.7291C37.3084 50.2515 39 51.7375 39 54.375H27C27 57.3581 28.9151 59.1567 30.1126 59.9051C31.3912 60.7042 32.7819 61 34 61V49ZM39 54.375V25.625H27V54.375H39ZM39 25.625C39 28.2625 37.3084 29.7485 36.4726 30.2709C35.5558 30.8439 34.6651 31 34 31V19C32.7819 19 31.3912 19.2958 30.1126 20.0949C28.9151 20.8433 27 22.6419 27 25.625H39ZM34 31C33.3349 31 32.4442 30.8439 31.5274 30.2709C30.6916 29.7485 29 28.2625 29 25.625H41C41 22.6419 39.0849 20.8433 37.8874 20.0949C36.6088 19.2958 35.2181 19 34 19V31ZM29 25.625V54.375H41V25.625H29ZM29 54.375C29 51.7375 30.6916 50.2515 31.5274 49.7291C32.4442 49.1561 33.3349 49 34 49V61C35.2181 61 36.6088 60.7042 37.8874 59.9051C39.0849 59.1567 41 57.3581 41 54.375H29Z" fill="white" mask="url(#path-6-inside-3)"/>
</svg>

<svg fill="none" xmlns="http://www.w3.org/2000/svg" viewBox="0 0 80 80">
  <mask id="a" fill="#fff">
    <path d="M46.188 55c-.45 0-.813-.28-.813-.625v-28.75c0-.346.363-.625.813-.625.449 0 .812.28.812.625v28.75c0 .346-.363.625-.813.625z"/>
  </mask>
  <path d="M46.188 53c.177 0 .412.053.644.232.236.181.543.568.543 1.143h-4c0 1.906 1.778 2.625 2.813 2.625v-4zm1.187 1.375v-28.75h-4v28.75h4zm0-28.75c0 .575-.307.962-.543 1.143a1.059 1.059 0 01-.645.232v-4c-1.034 0-2.812.719-2.812 2.625h4zM46.187 27c-.177 0-.412-.053-.644-.232A1.442 1.442 0 0145 25.625h4C49 23.719 47.222 23 46.187 23v4zM45 25.625v28.75h4v-28.75h-4zm0 28.75c0-.575.307-.962.543-1.143.232-.18.467-.232.645-.232v4C47.221 57 49 56.281 49 54.375h-4z" fill="#fff" mask="url(#a)"/>
  <path d="M47.222 27.152c.344.603.673 1.397.976 2.353a7.746 7.746 0 00-.396-.664 4.427 4.427 0 00-.695-.826 2.393 2.393 0 00-.446-.322 6.878 6.878 0 01-.134-.66 15.96 15.96 0 01-.116-.897c.206.147.483.441.81 1.016z" stroke="#fff" stroke-width="2"/>
  <mask id="b" fill="#fff">
    <path d="M34 36.25c-2.756 0-5-1.963-5-4.375v-6.25c0-.346.32-.625.714-.625.395 0 .883.28.883.625v6.25c0 1.723 1.434 2.625 3.403 2.625 1.97 0 3.5-1 3.5-2.5v-6.375c0-.346.39-.625.786-.625.395 0 .714.28.714.625v6.25c0 2.412-2.244 4.375-5 4.375z"/>
  </mask>
  <path d="M34 34.25c-1.911 0-3-1.31-3-2.375h-4c0 3.759 3.398 6.375 7 6.375v-4zm-3-2.375v-6.25h-4v6.25h4zm0-6.25A1.332 1.332 0 0129.714 27v-4c-1.24 0-2.714.932-2.714 2.625h4zM29.714 27a.887.887 0 01-.512-.148c-.076-.05-.605-.423-.605-1.227h4c0-1.15-.774-1.835-1.192-2.111a3.116 3.116 0 00-1.69-.514v4zm-1.117-1.375v6.25h4v-6.25h-4zm0 6.25c0 1.493.658 2.753 1.785 3.575 1.052.767 2.362 1.05 3.618 1.05v-4c-.713 0-1.105-.168-1.262-.282a.304.304 0 01-.102-.108.515.515 0 01-.04-.235h-4zM34 36.5c1.299 0 2.597-.326 3.63-1.046 1.07-.743 1.87-1.939 1.87-3.454h-4c0 .023-.003.025-.006.03a.49.49 0 01-.148.14c-.223.156-.675.33-1.346.33v4zm5.5-4.5v-6.375h-4V32h4zm0-6.375c0 .621-.346.997-.536 1.143a1.096 1.096 0 01-.678.232v-4c-.646 0-1.27.22-1.76.597-.484.372-1.026 1.061-1.026 2.028h4zM38.286 27c-.45 0-1.286-.373-1.286-1.375h4C41 23.932 39.526 23 38.286 23v4zM37 25.625v6.25h4v-6.25h-4zm0 6.25c0 1.065-1.089 2.375-3 2.375v4c3.602 0 7-2.616 7-6.375h-4z" fill="#fff" mask="url(#b)"/>
  <mask id="c" fill="#fff">
    <path d="M34 55c-.553 0-1-.28-1-.625v-28.75c0-.346.447-.625 1-.625.553 0 1 .28 1 .625v28.75c0 .346-.447.625-1 .625z"/>
  </mask>
  <path d="M34 49c.665 0 1.556.156 2.473.73.835.522 2.527 2.008 2.527 4.645H27c0 2.983 1.915 4.782 3.113 5.53A7.346 7.346 0 0034 61V49zm5 5.375v-28.75H27v28.75h12zm0-28.75c0 2.637-1.692 4.123-2.527 4.646A4.658 4.658 0 0134 31V19a7.346 7.346 0 00-3.887 1.095c-1.198.748-3.113 2.547-3.113 5.53h12zM34 31a4.658 4.658 0 01-2.473-.73C30.692 29.75 29 28.263 29 25.626h12c0-2.983-1.915-4.782-3.113-5.53A7.346 7.346 0 0034 19v12zm-5-5.375v28.75h12v-28.75H29zm0 28.75c0-2.638 1.692-4.123 2.527-4.646A4.658 4.658 0 0134 49v12a7.346 7.346 0 003.887-1.095c1.198-.748 3.113-2.547 3.113-5.53H29z" fill="#fff" mask="url(#c)"/>
</svg>
